X:1
T:Salve Regina
T:Salve Regina
T:Oliver Hayes
C:Oliver Hayes
%%score [ 1 2 3 4 ]
L:1/8
Q:1/4=150
M:2/2
K:Cmin
V:1 treble nm="Soprano"
V:2 treble nm="Alto"
V:3 treble-8 nm="Tenor"
V:4 bass nm="Bass"
V:1
 F8 | A4 G4 | F8 | A8 | c4 c2 B2 | c4 e4 | d4 c2 B2 | c8 | F8 | A4 c2 B2 | A2 G2 F2 E2 | F8 | %12
w: Sal-|ve Re-|gi-|na,|ma- ter mi-|se- ri-|cor- di- *|ae,|vi-|ta dul- *|ce- * * *|do,|
 A4 A4 | B2 A2 G4 | A6 B2 | c8 | c8 | c8 | d6 e2 | f8 | e8 | d8 | c8 | B4 B2 B2 | B4 A2 G2 | F8 | %26
w: et spes|no- * stra|sal- *|ve.|Ad|te|cla- *|ma-|||mus,|ex- su- les|fi- li- i|He-|
 E8 | F8 | A4 A2 A2 | B2 A2 G4 | F4 f4 | e8 | f4 c4 | c4 B2 A2 | G2 F4 G2 | A4 G2 F2 | %36
w: vae.|Ad|te su- spi-|ra- * *|mus, ge-|men-|tes et|flen- * *|tes, _ in|hac la- cri-|
 E2 D2 C2 B,2 | C8 | D4 B,4 | !fermata!C8 || z8 | z8 | z8 | z8 | z8 | z8 | z8 | z8 | z8 | z8 | z8 | %51
w: ma- * * *|rum|va- *|le.||||||||||||
 z8 | z8 | z8 | z8 | z8 | z8 | z8 || c8 | c4 B4 | B8 | c4 c4 | d4 c2 B2 | c8 | A4 A2 B2 | %65
w: |||||||Et|Je- *|sum,|be- ne-|di- * *|tum,|fru- ctum _|
 c4 d2 e2 | f4 e2 d2 | c8 | F4 F2 F2 | E6 E2 | D2 E2 F2 G2 | A4 A2 G2 | F8 | !fermata!F8 || f8 | %75
w: ven- tris _|tu- * *|i,|no- bis post|hoc e-|xi- * * li-|um o- *|sten-|de.-|O|
 e4 d2 e2 | f4 e2 d2 | c8 || A8 | B8 | A2 B2 c4 | d6 e2 | f8 || c8 | d4 c2 B2 | A8 | B2 c2 d2 e2 | %87
w: _ _ _|cle- * *|mens,|O|_|pi- * *||a,|O|dul- cis _|Vir-|go _ Ma- *|
 f8- | f4 =e2 d2 | =e8 | !fermata!f8 |] %91
w: ri-|||a.|
V:2
 C8 | E6 E2 | D4 B,4 | C8 | C4 D2 E2 | E4 G4 | F2 E2 D4 | C8 | C4 F4 | E2 D2 C4 | B,4 D4 | C8 | %12
w: Sal-|ve Re-|gi- *|na,|ma- ter mi-|se- ri-|cor- * di-|ae,|vi- *|ta _ dul-|ce- *|do,|
 F4 F4 | _D4 E4 | F8 | C8 | =E4 D2 E2 | F4 E4 | F4 G4 | A8 | G8 | F8 | A8 | F4 E2 D2 | E4 B,2 B,2 | %25
w: et spes|no- stra|sal-|ve.|Ad _ _|te cla-|ma- *||||mus,|ex- su- les|fi- li- i|
 D8 | C8 | C8 | F4 F2 F2 | F4 E4 | C6 D2 | E4 D4 | C4 C2 D2 | C4 D4 | C6 B,2 | C4 D4 | C2 D2 E4 | %37
w: He-|vae.|Ad|te- su- spi-|ra- *|mus, ge-|men- *|tes et _|flen- *|tes, in|hac la-|cri- * ma-|
 A,8 | B,8 | !fermata!A,8 || C8 | C6 D2 | E4 D2 C2 | F8 | C6 C2 | C2 B,2 C2 D2 | E4 G4 | F8 | %48
w: rum|va-|le.|E-|ia _|er- * *|go,|ad- vo-|ca- * ta _|no- *|stra,|
 A6 G2 | F2 E2 F2 G2 | A4 F2 A2 | B6 AG | F4 E4 | F4 z2 F2 | E4 D4 | C8 | D8 | !fermata!C8 || A8 | %59
w: il- los|tu- * os mi-|se- ri- *|cor- des _|o- cu-|los, ad|nos con-|ver-||te.|Et|
 G8 | F8 | A4 F4 | F6 G2 | E8 | F6 F2 | E4 F2 E2 | C8 | A,8 | C4 C2 C2 | B,4 B,4 | F2 E2 D4 | %71
w: Je-|sum,|be- ne-|di- *|tum,|fruc- tum|ven- tris _|tu-|i,|no- bis post|hoc e-|xi- * li-|
 C4 F2 E2 | D8 | !fermata!C8 || C8- | C8 | C8 | E8 || F8- | F8 | C8 | D8- | D8 || C8 | F4 F4 | %85
w: um o- *|sten-|de.-|O|_|cle-|mens,|O|_|pi-|a,|_|O|dul- cis|
 A4 G4 | F8 | C8 | G8- | G8 | !fermata!A8 |] %91
w: Vir- *|go|Ma-|ri-||a.|
V:3
 A8 | c4 B4- | B4 F2 G2 | A8 | F4 A2 B2 | c4 B4 | B4 F4 | A8 | A6 B2 | c4 e4- | e4 d2 B2 | A8 | %12
w: Sal-|ve Re-|* gi- *|na,|ma- ter mi-|se- ri-|cor- di-|ae,|vi- ta|dul- ce-||do,|
 A4 A4 | F4 G2 B2 | A4 B4 | A8 | G8 | A8 | B8 | c6 d2 | e8 | f4 d4 | c8 | d4 c2 B2 | A2 G2 G4 | %25
w: et spes|no- stra _|sal- *|ve.|Ad|te|cla-|ma- *|||mus,|ex- su- les|fi- * li-|
 B4 A4 | G8 | A8 | A4 B2 c2 | _d4 c2 B2 | A6 A2 | G8 | A4 A4 | A4 G4 | F4 E2 D2 | E4 D4 | G4 E4 | %37
w: i He-|vae.|Ad|te su- spi|ra- * *|mus, ge-|men-|tes et|flen- *|tes, in _|hac la-|cri- ma-|
 F4 A4 | F8 | !fermata!F8 || A8 | A2 G2 F4 | G2 E2 F2 G2 | A8 | A4 G4 | F8 | C4 E4 | B8 | c4 c4 | %49
w: rum _|va-|le.|E-|ia _ er-||go,|ad- vo-|ca-|ta no-|stra,|il- los|
 d2 c2 B4 | c4 c4 | d6 c2 | B2 A2 G4 | B4 z2 B2 | B2 A2 F2 G2 | A4 F4- | F8 | !fermata!A8 || f8 | %59
w: tu- os mi-|se- ri-|cor- des-|o- * cu-|los, ad|nos _ con- *|* ver-||te.|Et|
 e8 | d2 c2 B4 | F2 G2 A4 | B2 c2 d2 e2 | c8 | _d4 c2 B2 | A4 B4 | A2 G2 A4 | F8 | A4 A2 A2 | %69
w: Je-|* * sum,|be- * ne-|di- * * *|tum,|fruc- tum _|ven- tris|tu- * *|i,|no- bis post|
 G4 G4 | B4 B4 | F4 A4 | B4 A2 G2 | !fermata!F8 || A8 | G8 | A8 | G8 || c8 | d2 c2 B4 | A4 G2 A2 | %81
w: hoc e-|xi- li-|um o-|sten- * *|de.|O|_|cle-|mens,|O|pi- * *||
 B8 | F8 || A8 | B6 B2 | c8 | d4 B4 | A4 B4 | c8- | c8 | !fermata!c8 |] %91
w: |a,|O|dul- cis|Vir-|go Ma-|ri- *|||a.|
V:4
 F,8 | A,4 E,4 | B,,2 C,2 D,2 E,2 | F,8 | A,2 G,2 F,2 G,2 | A,4 E,4 | B,,4 B,,4 | F,8 | F,6 G,2 | %9
w: Sal-|ve Re-|gi- * * *|na,|ma- * ter mi-|se- ri-|cor- di-|ae,|vi- *|
 A,4 A,,4 | E,4 B,,4 | F,8 | _D,6 C,2 | B,,4 E,4 | F,2 E,2 D,2 B,,2 | F,,8 | C,2 D,2 =E,4 | F,8 | %18
w: ta dul-|ce- *|do,|et spes|no- stra|sal- * * *|ve.|Ad _ _|te|
 B,,8 | F,2 G,2 A,2 B,2 | C4 B,2 A,2 | B,8 | F,8 | B,,4 B,,2 B,,2 | E,4 E,2 E,2 | B,,8 | C,8 | %27
w: cla-|ma- * * *|||mus,|ex- su- les|fi- li- i|He-|vae.|
 F,8 | _D,4 D,2 C,2 | B,,4 C,4 | F,6 F,2 | C,8 | F,4 F,4 | F,,4 G,,4 | A,,6 B,,2 | A,,4 B,,4 | %36
w: Ad|te su- spi-|ra- *|mus, ge-|men-|tes et|flen- *|tes in|hac la-|
 C,2 B,,2 A,,2 G,,2 | F,,8 | B,,8 | !fermata!F,,8 || F,,8 | F,,2 G,,2 A,,2 B,,2 | C,4 D,2 E,2 | %43
w: cri- * ma- *|rum|va-|le.|E-|ia _ _ _|er- * *|
 F,4 A,2 G,2 | F,4 E,4 | D,4 C,2 B,,2 | A,,4 B,,2 C,2 | D,8 | F,6 E,2 | B,,2 C,2 D,2 E,2 | %50
w: go, ad- *|* vo-|ca- ta _|no- * *|stra,|il- los|tu- * os mi-|
 F,2 G,2 A,4 | G,2 A,2 B,4 | B,,4 C,4 | D,4 z2 D,2 | C,4 B,,4 | F,,4 A,,4 | B,,2 C,2 _D,2 E,2 | %57
w: se- * ri-|cor- * des|o- cu-|los, ad|nos _|con- *|ver- * * *|
 !fermata!F,8 || z8 | z8 | z8 | z8 | z8 | z8 | z8 | z8 | z8 | z8 | z8 | z8 | z8 | z8 | z8 | z8 || %74
w: te.|||||||||||||||||
 F,8 | C,4 E,4 | F,8 | C,8 || F,8 | B,,2 C,2 D,2 E,2 | F,8 | G,4 F,4 | B,,8 || %83
w: O|_ _|cle-|mens,|O|pi- * * *|||a,|
 F,8"^Copyright Oliver Hayes, August 15th 2005,  Feast of the Assumption.\nMay be copied and performed for non - profit making use." | %84
w: O|
 B,,4 D,4 | F,8 | B,,8 | F,8 | C,8- | C,8 | !fermata!F,,8 |] %91
w: dul- cis|Vir-|go|Ma-|ri-||a.|

